X: 141
T: Old Favorite
R: jig
M: 6/8
K: G
"G"B3 BAB| dBA G2B| ded d2B| ded "D"B2A|
"G"B3 BAB| dBA G2B| ded "D"cBA| "G"G3 G3 :|
|:"G"g3 "D"f3| "C"efe "G"d2B| ded d2B| ded Bdf| "G"g3 "D"f3|
"C"efe "G"d2B|1 "D"dge dBA| "G"G3 G3 :|2 "G"dge dge| dge "D"dBA |]
%%text Roaring Jelly  J-63

